X:183
T:score261
L:1/8
Q:1/4=96
M:3/4
I:linebreak $
K:Gmin
 (3GBd g3 d | (3BAG d2 D z | A>d A>d (3Adc | B4 z2 |$ (3GBd g3 d | (3BAG d2 D z | %6
 (3DGA B>c (3d=e^f | g3 _a =f z |$ (3edc (3dcB (3cBA | G4 z2 |] %10
